X: 1
T:CALUM MacAULAY
M:C|
L:1/8
Q:80
C:Scott MacAulay
S:March
K:HP
|: {gef}e|
{g}A3/4{d}c/4{gef}e3/4A/4{g}B/4{d}G3/4{gde}d3/4B/4|
{g}A3/4{d}c/4{gef}e3/4c/4{ag}ae3/4f/4|  !
{gf}g3/4e/4f/4{g}d3/4{g}f3/4e/4{g}c/4{d}A3/4|
{g}c/4e3/4{g}c/4{d}A3/4{gBd}B{gef}e|
{g}A3/4{d}c/4{gef}e3/4A/4{g}B/4{d}G3/4{gde}d3/4B/4|  !
{g}A3/4{d}c/4{gef}e3/4c/4{ag}ae3/4f/4|
{gf}g3/4a/4g3/4e/4{g}d/4{e}G3/4{g}B/4e3/4|
{g}A2{GAG}A:| |:  !
{g}f3/4g/4|
{ag}a3/4e/4f/4{g}d3/4{g}f3/4e/4{g}c/4{d}A3/4|
{g}A3/4{d}c/4{gef}e3/4c/4{ag}ae3/4f/4|  !
{gf}g3/4e/4f/4{g}d3/4{g}f3/4e/4{g}c/4{d}A3/4|
{g}c/4e3/4{g}c/4{d}A3/4{gBd}|1 B{g}f3/4g/4|2 {gef}e|1
{ag}a3/4e/4f/4{g}d3/4{g}f3/4e/4{g}c/4{d}A3/4|  !
{g}A3/4{d}c/4{gef}e3/4c/4{ag}ae3/4f/4|
{gf}g3/4a/4g3/4e/4{g}d/4{e}G3/4{g}B/4e3/4|
{g}A2{GAG}A:|2  !
{g}A3/4{d}c/4{gef}e3/4A/4{g}B/4{d}G3/4{gde}d3/4B/4|
{g}A3/4{d}c/4{gef}e3/4c/4{ag}ae3/4f/4|
{gf}g3/4a/4g3/4e/4{g}d/4{e}G3/4{g}B/4e3/4|  !
{g}A2{GAG}A|] |:
{gef}e|
{gAGAG}A{gef}e3/4A/4{g}G3/4d/4{g}B/4{d}G3/4|  !
{g}A3/4{d}c/4{gef}e3/4c/4{ag}a3/4g/4{a}f/4a3/4|
{f}g3/4e/4f/4{g}d3/4{g}f3/4e/4{g}c/4{d}A3/4|
{g}c/4e3/4{g}c/4{d}A3/4{gBd}B{gef}e|  !
{gAGAG}A{gef}e3/4A/4{g}G3/4d/4{g}B/4{d}G3/4|
{g}A3/4{d}c/4{gef}e3/4c/4{ag}ae3/4f/4|
{gf}g3/4a/4g3/4e/4{g}d/4{e}G3/4{g}B/4e3/4|  !
{g}A2{GAG}A:| |:
{g}f3/4g/4|
{ag}a3/4e/4f/4{g}d3/4{g}c3/4{d}A/4{e}A3/4{d}B/4|  !
{g}A3/4{d}c/4{gef}e3/4c/4{ag}ae3/4f/4|
{gf}g3/4e/4f/4{g}d3/4{g}f3/4e/4{g}c/4{d}A3/4|
{g}c/4e3/4{g}c/4{d}A3/4{gBd}|1 B{g}f3/4g/4|2 {gef}e|1  !
{ag}a3/4e/4f/4{g}d3/4{g}c3/4{d}A/4{e}A3/4{d}B/4|
{g}A3/4{d}c/4{gef}e3/4c/4{ag}ae3/4f/4|
{gf}g3/4a/4g3/4e/4{g}d/4{e}G3/4{g}B/4e3/4|  !
{g}A2{GAG}A:|2
{g}A3/4{d}c/4{gef}e3/4A/4{g}B/4{d}G3/4{gde}d3/4B/4|
{g}A3/4{d}c/4{gef}e3/4c/4{ag}ae3/4f/4|  !
{gf}g3/4a/4g3/4e/4{g}d/4{e}G3/4{g}B/4e3/4|
{g}A2{GAG}A|]
